X:18972
T:Xiraldilla (CT 093)
R:Xiraldilla
C:Tradicional
S:Música Tradicional Asturiana, (C) Tello & Tito. Asturies, 2001.
S:http://pagina.de/MusTradAst <telloytito@asturies.org>
N:Xiraldilla, dictada por Pedro Menéndez, "El Manjoyu", de treinta y nueve años, de San Esteban de Las Cruces, ayuntamiento de Uviéu.
O:San Esteban de Las Cruces (Uviéu)
A:Asturies
Z:Cancioneru de Torner 093
M:2/4
L:1/8
Q:1/4=160
W:-Córtame un ramito verde.
W:-Verde te lo cortaré.
W:-Córtame un ramito verde
W:de los álamos del rey.
W:
W:Y si el rey no te dejara
W:de sus álamos cortar,
W:córtame un ramito verde,
W:que los tiene el olivar.
K:C
|d2 dd|e2 ee|d2 B2|d2 dd|e2 ee|d4|B2 AB|d2 cB|A2 G2|B2 AB|c2 BA|G4 :||


